packages/core/src/Assets/SvgComponents/header/deriv-text.svg

<svg width="125" height="27" viewBox="0 0 125 27" fill="none" xmlns="http://www.w3.org/2000/svg">
<path fill-rule="evenodd" clip-rule="evenodd" d="M26.6335 13.3267C27.9414 5.7825 23.21 0 14.9311 0H4.6473L0 26.8088H10.2816C18.5693 26.8088 25.3101 20.9497 26.6202 13.4032L26.6335 13.3267ZM108.503 18.8797L104.883 0H98.4808L104.458 27H109.581L124.924 0H118.67L108.503 18.8797ZM72.1505 0C75.5032 0 77.9353 0.9585 79.3538 2.72025C80.5643 4.212 80.9936 6.32025 80.551 8.847L80.5378 8.9235C79.7964 13.2502 77.0279 15.9705 73.4562 17.235L78.234 26.8088H71.4534L65.1441 13.0162H69.5082C72.3342 13.0162 74.2196 11.475 74.6113 9.225L74.6246 9.1485C75.0628 6.62625 73.5557 5.3235 70.7297 5.3235H64.9759L61.2492 26.8088H55.449L60.0963 0H72.1505ZM89.1242 26.8088L93.7715 0H87.9712L83.3217 26.8088H89.1242ZM54.3712 0L53.4595 5.247H39.3361L38.3911 10.6853H47.5087L46.5992 15.9323H37.4816L36.5057 21.5572H50.8194L49.9098 26.8043H29.8335L34.4808 0H54.3712ZM9.52697 5.3235H14.0083C18.7552 5.3235 21.3776 8.65575 20.5544 13.4032L20.5411 13.4797C19.7178 18.2295 15.9513 21.4853 11.2066 21.4853H6.7231L9.52697 5.3235Z" fill="white"/>
</svg>

<svg width="125" height="27" fill="none" xmlns="http://www.w3.org/2000/svg"><path fill-rule="evenodd" clip-rule="evenodd" d="M26.634 13.327C27.94 5.782 23.21 0 14.93 0H4.647L0 26.809h10.282c8.287 0 15.028-5.86 16.338-13.406l.014-.076zm81.869 5.553L104.883 0h-6.402l5.977 27h5.123l15.343-27h-6.254l-10.167 18.88zM72.15 0c3.353 0 5.785.959 7.204 2.72 1.21 1.492 1.64 3.6 1.197 6.127l-.013.077c-.742 4.326-3.51 7.046-7.082 8.311l4.778 9.574h-6.78l-6.31-13.793h4.364c2.826 0 4.712-1.541 5.103-3.791l.014-.076c.438-2.523-1.07-3.825-3.895-3.825h-5.754l-3.727 21.485h-5.8L60.096 0H72.15zm16.974 26.809L93.772 0h-5.8l-4.65 26.809h5.802zM54.371 0l-.912 5.247H39.337l-.945 5.438h9.118l-.91 5.247h-9.117l-.976 5.625h14.313l-.91 5.247H29.835L34.48 0h19.89zM9.527 5.324h4.481c4.747 0 7.37 3.332 6.546 8.08l-.013.076c-.823 4.75-4.59 8.005-9.334 8.005H6.723L9.527 5.323z" fill="#fff"/></svg>
